X: 26849
T: Mina Olen Mees
R: polka
M: 2/4
K: Eminor
EG BG|EG BG|FF/G/ AB/A/|GE E2:|
|:ee e/d/c|BB/c/ B/A/G|FF/G/ AB/A/|GE E2:|

